X: 196
T: Bahâr Olsa, Çemenzâr Olsa
C: Fahri Kopuz
O: Turkey
F: http://compmusic.upf.edu/node/140
N: hicaz--sarki--curcuna--bahar_olsa--fahri_kopuz
N: makam= hicaz
N: form= sarki
N: usul= curcuna = 10/8
M: 10/8
L: 1/16
K: C _7/8B ^f ^c 
Q: 1/4=168
%%MIDI tuningsystem comma53
z4 d2e4e4e6  | z4 f2g2 f2g2 f2a2 f2e2  | \
w:  Ba hâr  ol sa   |  çe men *  zâr  *  ol  | 
e6a4g2 =f2e2 d2c2  | 
w:  sa   | 
d6e4ef ede4f2  | g6a4=b4g2 f2e2  | f2e2 f2a2 g2=f2 e2d4(3cBc  | 
w:  â *  lem   |  han de dâr_ ol  |  sa   | 
d6e4=f4ed c2d2  | e8-e2c2 B2A4z2  | z4 d2e4e4e6  | \
w:  han de dâr_ ol  |  sa   SAZ  |  Ba hâr  ol sa   | 
z4 f2g2 f2g2 f2a2 f2e2  | 
w:  çe men *  zâr  *  ol  | 
e6a4g2 =f2e2 d2c2  | d6e4ef ede4f2  | \
w:  sa   |  â *  lem   | 
g6a4=b4g2 f2e2  | 
w:  han de dâr_ ol  | 
f2e2 f2a2 g2=f2 e2d4(3cBc  | d6e4=f4ed c2d2  | \
w:  sa   |  han de dâr_ ol  | 
e8-e2de fga4z2  | 
w:  sa   SAZ  | 
z4 g2a4a4a4g2  | g2a2 =b2{c'}b2 a2=c'4b4a2  | \
w:  Sen_ ol maz san   |  ha *  ya *  *  *  lim  | 
a8-a2a2 =b2g2 f2ed  | 
w:  de   | 
e4 a2b4b2 a2b2 a2g2  | f2g2 a2b2 c'2b2 a2g2 f2a2  | \
w:  *  ze min  ağ *  lar   |  se *  *  mâ  *  ağ  | 
g8-g2g2 f2f4e2  | 
w:  lar   | 
e2f2 g2a2 =b2g2 f2a2 f2e2  | e8-e2ed cde4z2  | \
w:  se *  mâ  *  *  ağ  |  lar  SAZ  | 
z4 c2d2 e2f2 g2a3g=f2  | 
w:  Sen_ ol *  maz *  san   | 
=f2e2 e4 d2dc ded4c2  | c8-c2cd cBc4z2  | \
w:  ha *  ya *  lim  |  de   | 
z4 g2=f2 e2d2 =c2_1/4B2 {c}BAB2  | 
w:  ze min  *  ağ *  lar   | 
z4 =c2d4d2 c2_1/4B2 ^A2B2  | =c6e4d2 c2c4_1/4B^A  | \
w:  se mâ  ağ  |  lar   | 
_1/4B4 c2d2 e2c2 _7/8B2c2 B2A2  | 
w:  *  se mâ  *  ağ  | 
A6A4^d4e4z2  | z4 ^d2e4e4e6  | =f^g^1/4fe f2g4a4g2 f2e2  | \
w:  lar   *  SAZ  |  Gö nül  meh cur   |  kal *  *  *  *  *  dık  | 
e8-e2e2 {=f}e^dd4z2  | 
w:  ça   | 
z4 e2=f4e2 ^d2=c2 =B2A2  | ^G2A2 =B2=c2 ^d2c2 B2A2 G2A2  | \
w:  hu zur  üm *  mîd   |  e *  der  *  *  san  | 
=c12 =B2c4z2  | 
w:  ma   | 
z4 d2e4e4e4{f}d2  | e2f2 g2a2 =b2g2 f2a2 f2e2  | \
w:  hu zur  üm mîd   |  e *  der  *  *  san  | 
e8-e2de fga4z2  | 
w:  ma    | 
z4 g2a4a4a4g2  | g2a2 =b2{c'}b2 a2=c'4b4a2  | \
w:  Sen_ ol maz san   |  ha *  ya *  *  *  lim  | 
a8-a2a2 =b2g2 f2ed  | 
w:  de   | 
e4 a2b4b2 a2b2 a2g2  | f2g2 a2b2 c'2b2 a2g2 f2a2  | \
w:  *  ze min  ağ *  lar   |  se *  *  mâ  *  ağ  | 
g8-g2g2 f2f4e2  | 
w:  lar   | 
e2f2 g2a2 =b2g2 f2a2 f2e2  | e8-e2ed cde4z2  | \
w:  se *  mâ  *  *  ağ  |  lar  SAZ  | 
z4 c2d2 e2f2 g2a3g=f2  | 
w:  Sen_ ol *  maz *  san   | 
=f2e2 e4 d2dc ded4c2  | c8-c2cd cBc4z2  | \
w:  ha *  ya *  lim  |  de   | 
z4 g2=f2 e2d2 =c2_1/4B2 {c}BAB2  | 
w:  ze min  *  ağ *  lar   | 
z4 =c2d4d2 c2_1/4B2 ^A2B2  | =c6e4d2 c2c4_1/4B^A  | \
w:  se mâ  ağ  |  lar   | 
_1/4B4 c2d2 e2c2 _7/8B2c2 B2A2  | 
w:  *  se mâ  *  ağ  | 
A6A4|
w:  lar    | 


